img/icons/experience/chrome-ext.svg

<svg width="33" height="33" viewBox="0 0 33 33" fill="none" xmlns="http://www.w3.org/2000/svg">
<g clip-path="url(#clip0_392_764)">
<path d="M22.2956 11.9501L31.5284 9.64116C32.4997 11.7841 33.0015 14.1101 33 16.4629C33 25.5337 25.5337 33 16.4577 33C16.038 33 15.6245 32.9835 15.2109 32.9515L21.9522 21.4727C22.44 20.9571 22.8546 20.3713 23.166 19.7278C23.6486 18.706 23.894 17.5882 23.8838 16.4582C23.8736 15.3282 23.6081 14.2151 23.1072 13.2021C22.881 12.7573 22.609 12.3374 22.2956 11.9491V11.9501ZM17.8375 23.7404L14.9212 32.9237C6.51441 32.0977 0 24.9428 0 16.468C0 13.1917 0.977625 9.98456 2.80397 7.25587L9.44831 18.777C9.69581 19.5185 10.99 22.3276 13.6651 23.3527C15.0398 23.8734 16.4722 24.0137 17.8375 23.7404ZM16.4629 10.4785C13.7074 10.5064 11.1293 12.5998 10.5755 15.3079C10.383 16.3007 10.4378 17.3255 10.7349 18.2922C11.032 19.2588 11.5623 20.1375 12.2791 20.8508C13.9497 22.4843 16.5969 23.0206 18.7883 22.1244C20.7219 21.3355 22.1832 19.4762 22.4885 17.4085C22.8597 14.8583 21.4036 12.1399 19.0565 11.0437C18.244 10.6671 17.3584 10.4735 16.4629 10.4785ZM9.68962 13.696L3.10509 6.82687C4.64035 4.71355 6.65376 2.99339 8.98086 1.8069C11.308 0.620406 13.8827 0.00124807 16.4948 0C19.5732 0.00212844 22.59 0.862158 25.2067 2.48356C27.8235 4.10497 29.9365 6.42358 31.3088 9.17916H17.2683C14.7758 9.00694 12.7463 9.89278 11.4025 11.1767C10.6602 11.8862 10.0764 12.7448 9.68962 13.696Z" fill="#D6BD96"/>
</g>
<defs>
<clipPath id="clip0_392_764">
<rect width="33" height="33" fill="white"/>
</clipPath>
</defs>
</svg>

<svg width="33" height="33" fill="none" xmlns="http://www.w3.org/2000/svg"><g clip-path="url(#a)"><path d="m22.296 11.95 9.232-2.309A16.5 16.5 0 0 1 33 16.463C33 25.533 25.534 33 16.458 33c-.42 0-.833-.017-1.247-.048l6.741-11.48a6.954 6.954 0 0 0 1.214-1.744 7.498 7.498 0 0 0-.059-6.526 7.17 7.17 0 0 0-.811-1.253v.001Zm-4.459 11.79-2.916 9.184C6.514 32.098 0 24.943 0 16.468c0-3.276.978-6.483 2.804-9.212l6.644 11.521c.248.741 1.542 3.55 4.217 4.576 1.375.52 2.807.66 4.172.387Zm-1.374-13.26c-2.756.027-5.334 2.12-5.888 4.829a6.164 6.164 0 0 0 1.704 5.543c1.67 1.633 4.318 2.17 6.51 1.273 1.933-.788 3.394-2.648 3.7-4.715.37-2.55-1.085-5.27-3.433-6.365a6.088 6.088 0 0 0-2.593-.566ZM9.69 13.696l-6.585-6.87A16.56 16.56 0 0 1 16.495 0a16.562 16.562 0 0 1 14.814 9.18h-14.04c-2.493-.173-4.523.713-5.866 1.997a7.277 7.277 0 0 0-1.713 2.519Z" fill="#D6BD96"/></g><defs><clipPath id="a"><path fill="#fff" d="M0 0h33v33H0z"/></clipPath></defs></svg>
